X: 402
T: A Tribute To Tom
R: reel
M: 4/4
K: Amajor
E/F/G|:~A3 c BAFE|Fddc dA B/c/d|eAAc BABc|dBcA BAFE|
AEAc BAFE|Fddc d2 B/c/d|eAAc BAFE|1 FAAG A2 cB:|2 FA A/A/A ABce||
aeea fecA|dffe f2 fa|eAAc BABc|dBcA Bcdg|
ae e/e/e fecA|df =g/f/e f2 f/g/a|ez A c BAFE|FA A/A/A ABce|
aeea fecA|dffe f2 fa|eAAc BABc dB c/B/A BAFE|
ABcd BAFE|Fddc d2 B/c/d|eAAc BAFE|FAAG A2||

